ext_icon.svg

<?xml version="1.0" encoding="UTF-8"?>
<svg width="292px" height="284px" viewBox="0 0 292 284" version="1.1" xmlns="http://www.w3.org/2000/svg" xmlns:xlink="http://www.w3.org/1999/xlink">
    <!-- Generator: Sketch 59.1 (86144) - https://sketch.com -->
    <title>Artboard</title>
    <desc>Created with Sketch.</desc>
    <g id="Artboard" stroke="none" stroke-width="1" fill="none" fill-rule="evenodd">
        <path d="M273.760941,159.342047 C271.693468,159.645816 269.580495,159.806864 267.428126,159.806864 C247.616231,159.806864 232.750749,162.622081 227,144.706927 C226.016757,141.644802 223.51759,139.286843 220.360338,138.684858 C203.915827,135.551446 189.942014,131.765408 181.655511,114.520018 C178.512092,107.978117 184.344489,96.7829712 179,94.8401485 C173.655511,92.8973257 170.544992,90.3124112 167.617162,87.773022 C160.015721,78.8909721 160.67805,65.1661907 160.67805,52.9673478 C160.67805,38.3708843 165.080447,24.8128999 172.611242,13.5206883 C174.401831,10.8356365 172.907546,7.25926969 169.743636,6.63229483 C161.056476,4.9107518 152.078561,4 142.885908,4 C66.7334328,4 5,65.7845134 5,142 C5,218.214931 66.7334328,280 142.885908,280 C211.518131,280 268.268765,230.000837 278.94294,164.313419 C279.427903,161.332373 276.746181,158.903331 273.760941,159.342047 Z" id="Path" fill="#F59C00" fill-rule="nonzero"></path>
        <path d="M160,240 C162.209067,240 164,241.896681 164,244.236184 L164,244.236184 L164,248.763816 C164,251.103319 162.209067,253 160,253 C157.790933,253 156,251.103319 156,248.763816 L156,248.763816 L156,244.236184 C156,241.896681 157.790933,240 160,240 Z M118.053657,218.448272 C120.083108,217.401777 122.550767,218.250043 123.565219,220.342468 C124.580218,222.434893 123.757483,224.979124 121.728032,226.025054 L121.728032,226.025054 L112.946343,230.552148 C112.356405,230.855987 111.729768,231 111.112442,231 C109.605006,231 108.154538,230.142134 107.434781,228.657952 C106.419782,226.565527 107.242517,224.021296 109.271968,222.975366 L109.271968,222.975366 Z M174,178 C186.130472,178 196,187.869528 196,200 C196,212.130472 186.130472,222 174,222 C161.869528,222 152,212.131028 152,200 C152,187.868972 161.869528,178 174,178 Z M89.4997226,169 C99.1493098,169 107,176.85069 107,186.500277 C107,196.149864 99.1493098,204 89.4997226,204 C79.8501355,204 72,196.149864 72,186.500277 C72,176.85069 79.8501355,169 89.4997226,169 Z M216.342392,169.434998 C218.43475,168.419506 220.978899,169.242744 222.024795,171.272084 L222.024795,171.272084 L226.551742,180.053842 C227.598203,182.08373 226.749965,184.550706 224.657608,185.56565 C224.049384,185.860329 223.403323,186 222.766862,186 C221.213265,186 219.717837,185.167998 218.975205,183.728015 L218.975205,183.728015 L214.448258,174.946258 C213.401797,172.916918 214.250035,170.449394 216.342392,169.434998 Z M181.053657,147.448512 C183.083656,146.401472 185.55022,147.250286 186.565219,149.342671 C187.580218,151.435056 186.757483,153.979239 184.728032,155.025149 L184.728032,155.025149 L175.946343,159.552156 C175.356405,159.85599 174.729768,160 174.112442,160 C172.605006,160 171.154538,159.14215 170.434781,157.657997 C169.419782,155.565611 170.242517,153.021429 172.271968,151.975519 L172.271968,151.975519 Z M104.240805,148.240792 C105.895212,146.586403 108.577622,146.586403 110.231464,148.240792 L110.231464,148.240792 L114.759195,152.768474 C116.413602,154.422298 116.413602,157.104678 114.759195,158.759067 C113.932274,159.586544 112.847787,160 111.763866,160 C110.679944,160 109.595457,159.585979 108.768536,158.759067 L108.768536,158.759067 L104.240805,154.231385 C102.586398,152.577561 102.586398,149.89518 104.240805,148.240792 Z M47.3423922,133.435026 C49.4347498,132.419469 51.9788986,133.24276 53.024795,135.272231 L53.024795,135.272231 L57.5517421,144.054006 C58.5982033,146.083477 57.7499655,148.55116 55.6576078,149.565622 C55.049384,149.86032 54.4033227,150 53.766862,150 C52.2127005,150 50.7172719,149.167944 49.975205,147.728417 L49.975205,147.728417 L45.4482579,138.946641 C44.4017967,136.91717 45.2500345,134.449487 47.3423922,133.435026 Z M138,107 C145.167899,107 151,112.832101 151,120 C151,127.167899 145.167899,133 138,133 C130.832101,133 125,127.168451 125,120 C125,112.832101 130.832101,107 138,107 Z M79.999722,76 C92.1300408,76 102,85.8695279 102,98 C102,110.130472 92.1305969,120 79.999722,120 C67.8694031,120 58,110.130472 58,98 C58,85.8695279 67.8688471,76 79.999722,76 Z M134.768536,72.2407916 C136.422378,70.5864028 139.104788,70.5864028 140.759195,72.2407916 C142.413602,73.8946156 142.413602,76.5769962 140.759195,78.231385 L140.759195,78.231385 L136.231464,82.7590672 C135.404543,83.5859792 134.320056,84 133.236134,84 C132.152213,84 131.067726,83.5859792 130.240805,82.7590672 C128.586398,81.1052431 128.586398,78.4228626 130.240805,76.7684738 L130.240805,76.7684738 Z M113.240798,45.2407377 C114.895196,43.5864208 117.577591,43.5864208 119.231424,45.2407377 L119.231424,45.2407377 L123.759131,49.7687879 C125.413529,51.4236697 125.413529,54.1053689 123.759696,55.7591211 C122.932779,56.586562 121.848299,57 120.764383,57 C119.680467,57 118.595986,56.586562 117.76907,55.7591211 L117.76907,55.7591211 L113.240798,51.2310709 C111.586401,49.5767539 111.586401,46.8950547 113.240798,45.2407377 Z" id="Combined-Shape" fill="#162259" fill-rule="nonzero"></path>
        <path d="M239.457263,85.3944316 C243.863564,83.1619851 249.048449,83.6359558 252.988589,86.6305382 L252.988589,86.6305382 L258.829065,91.0687285 C261.690828,93.242763 263.495078,96.4231508 263.910176,100.022435 C264.325274,103.62172 263.29247,107.137559 261.002841,109.921858 L261.002841,109.921858 L254.122971,118.286439 C251.634028,121.311619 248.035961,123 244.23309,123 C243.603304,123 242.968028,122.953827 242.331105,122.859811 C237.847933,122.196698 234.106009,119.281667 232.320977,115.06266 L232.320977,115.06266 L228.044256,104.952954 C225.353255,98.5905097 228.031628,91.1822144 234.142248,88.0869411 L234.142248,88.0869411 Z M206.605644,29.756194 C212.670021,27.9289252 215.920035,31.4080046 220.5,35.7990943 C225.079414,40.1896307 230.000826,44.5442332 228.465172,50.7127873 L228.465172,50.7127873 L224.466518,66.7774798 C223.266426,71.5991011 220.065078,75.6897041 215.684026,78.0000758 C213.166478,79.3281937 211.741873,80.5569607 207.59966,80 C203.457447,79.4430393 203.47804,74.7422886 201.507641,74.0002028 L201.507641,74.0002028 L190.288599,69.7745744 C182.527122,66.8516083 177.873965,63.6597231 179.236053,55.4475275 L179.236053,55.4475275 L180.503368,47.8114031 C181.584442,41.2947714 186.354505,35.8577889 192.655264,33.9596871 L192.655264,33.9596871 Z M256,42 C260.543325,42 266.674997,40.4588975 269,44 C270.3431,46.0456134 269,52.3750938 269,54.9997238 C269,62.1677751 263.168451,64.473746 256,64.473746 C248.831549,64.473746 243,62.1683276 243,55.0002762 C243,50.9543792 246.475955,50.3861961 249.383482,48 C251.627174,46.1586105 252.877912,42 256,42 Z" id="Combined-Shape" fill="#63C3D1" fill-rule="nonzero"></path>
    </g>
</svg>

<svg xmlns="http://www.w3.org/2000/svg" viewBox="0 0 292 284">
  <path fill="#f59c00" d="M267.428 159.807c-19.812 0-34.677 2.815-40.428-15.1-.983-3.062-3.482-5.42-6.64-6.022-16.444-3.134-30.418-6.92-38.704-24.165-3.144-6.542 2.688-17.737-2.656-19.68-18.052-6.012-18.339-27.123-18.322-41.873a70.848 70.848 0 0 1 11.933-39.446C177.451 2.916 148.09 4.02 142.886 4 66.733 4 5 65.785 5 142s61.733 138 137.886 138c68.632 0 125.383-50 136.057-115.687-.53-6.883-7.18-4.518-11.515-4.506z"/>
  <path fill="#63c3d1" d="M239.457 85.394c4.407-2.232 9.591-1.758 13.532 1.237l5.84 4.438c2.862 2.174 4.666 5.354 5.081 8.953.415 3.6-.618 7.116-2.907 9.9l-6.88 8.364c-2.489 3.026-6.087 4.714-9.89 4.714-5.238.078-10.243-4.193-11.912-7.937l-4.277-10.11c-2.69-6.362-.012-13.77 6.098-16.866zm-32.851-55.638c6.064-1.827 9.314 1.652 13.894 6.043 4.58 4.39 9.5 8.745 7.965 14.914l-3.998 16.064A17.463 17.463 0 0 1 215.684 78c-2.518 1.328-3.942 2.557-8.084 2-4.143-.557-4.122-5.258-6.092-6l-11.22-4.225c-7.76-2.923-12.414-6.115-11.052-14.327l1.267-7.637c1.081-6.516 5.852-11.953 12.152-13.851l13.95-4.204zM256 42c4.543 0 10.675-1.541 13 2 1.343 2.046 0 8.375 0 11 0 7.168-5.832 9.474-13 9.474S243 62.168 243 55c0-4.046 3.476-4.614 6.383-7 2.244-1.841 3.495-6 6.617-6z"/>
  <path fill="#162259" d="M160 240c2.21 0 4 1.897 4 4.236v4.528c0 2.34-1.79 4.236-4 4.236s-4-1.897-4-4.236v-4.528c0-2.34 1.79-4.236 4-4.236Zm-41.946-21.552c2.03-1.046 4.497-.198 5.511 1.894 1.015 2.093.192 4.637-1.837 5.683-2.927 1.51-5.854 3.018-8.782 4.527-2.106.965-4.648-.207-5.511-1.894-1.015-2.092-.192-4.637 1.837-5.683l8.782-4.527zM174 178c12.13 0 22 9.87 22 22s-9.87 22-22 22-22-9.869-22-22 9.87-22 22-22zm-84.5-9c9.65 0 17.5 7.85 17.5 17.5S99.15 204 89.5 204 72 196.15 72 186.5 79.85 169 89.5 169Zm126.842.435c2.093-1.015 4.637-.192 5.683 1.837l4.527 8.782c1.046 2.03.198 4.497-1.894 5.512-2.052 1.124-4.757-.135-5.683-1.838l-4.527-8.782c-1.046-2.03-.198-4.497 1.894-5.511zm-35.288-21.986c2.03-1.048 4.496-.199 5.511 1.894 1.015 2.092.192 4.636-1.837 5.682-2.927 1.51-5.854 3.018-8.782 4.527-2.106.965-4.648-.207-5.511-1.894-1.015-2.092-.192-4.637 1.837-5.682 2.927-1.51 5.854-3.018 8.782-4.527zm-76.813.792a4.236 4.236 0 0 1 5.99 0l4.528 4.527a4.236 4.236 0 0 1 0 5.991c-1.642 1.702-4.402 1.54-5.99 0l-4.528-4.528a4.236 4.236 0 0 1 0-5.99zm-56.899-14.806c2.093-1.016 4.637-.192 5.683 1.837l4.527 8.782c1.046 2.03.198 4.497-1.894 5.512-1.924 1.21-4.757-.135-5.683-1.838l-4.527-8.781c-1.046-2.03-.198-4.498 1.894-5.512zM138 107c7.168 0 13 5.832 13 13s-5.832 13-13 13-13-5.832-13-13 5.832-13 13-13zM80 76c12.13 0 22 9.87 22 22s-9.87 22-22 22-22-9.87-22-22 9.869-22 22-22Zm54.769-3.76a4.236 4.236 0 1 1 5.99 5.991l-4.528 4.528c-1.851 1.562-4.402 1.54-5.99 0a4.236 4.236 0 0 1 0-5.99l4.528-4.528zm-21.528-27a4.236 4.236 0 0 1 5.99 0l4.528 4.529a4.236 4.236 0 0 1 0 5.99c-1.641 1.737-4.402 1.54-5.99 0l-4.528-4.528a4.235 4.235 0 0 1 0-5.99z"/>
</svg>
